dist/svgs/crypto-icons/icons/pyn.svg

<svg width="512" height="510" xmlns="http://www.w3.org/2000/svg"><g fill="#000" fill-rule="nonzero"><path d="M37.515159 217.53751L.0357087179 254.827389 37.5340636 292.110441 74.817641 254.833165zM255.886572 436.932923L146.913017 327.977748 110.331011 364.553452 255.886572 509.324472 401.436357 364.553452 364.866429 327.977748zM255.886572 72.7344574L364.866429 181.682806 401.436357 145.113403 255.886572.34816 110.331011 145.113403 146.913017 181.682806zM474.251684 292.129346L511.724833 254.839467 474.245383 217.556414 436.955504 254.833165zM344.29033 292.265354L344.29033 279.487409 320.593395 279.487409 320.593395 277.429957C320.593395 262.884431 308.383639 251.036488 293.347118 251.036488 278.303245 251.036488 266.094014 262.884431 266.094014 277.429957L266.094014 279.487409 260.488271 279.487409 260.488271 269.55776 293.063024 219.535623C295.827824 215.419143 297.740341 212.224788 298.876718 209.952033 299.943778 207.610486 300.511967 205.267889 300.511967 203.001436 300.511967 200.161017 299.444907 197.680312 297.248295 195.476874 294.97449 193.350105 292.210215 192.213202 288.869875 192.213202 286.742581 192.213202 284.969223 192.642757 283.479434 193.418896 281.98912 194.202388 280.644792 195.262096 279.439097 196.758187 278.226576 198.172357 277.097551 199.738289 276.099807 201.366712 276.031015 201.581489 275.891856 201.719598 275.815188 201.934375L275.323143 202.717342C274.470334 204.062195 273.549785 205.697444 272.412882 207.470802L272.412882 207.540119 247.793296 247.064944 242.748915 238.902351 242.326187 238.195528 225.086228 210.166285 223.450978 207.540119C222.745206 206.473058 222.107175 205.412825 221.538462 204.490699 224.23447 204.630384 226.645333 204.913953 228.841945 205.344033 234.448738 206.33495 238.495376 208.108833 240.906765 210.589538 244.599992 214.497543 246.442667 219.604414 246.442667 225.848189 246.442667 230.463015 245.522117 234.286999 243.677867 237.34377L243.747709 237.412562 244.10112 237.911434 244.883036 239.18592 268.796324 200.445112C267.092283 197.819471 265.034831 195.407557 262.621867 193.280788 258.43712 189.517194 253.393264 186.892078 247.579044 185.26313 241.759048 183.559089 233.387979 182.705756 222.460587 182.705756L185.63177 182.705756C179.319204 182.705756 174.704377 184.127278 171.794117 186.822236 168.890158 189.517194 167.470211 193.98656 167.470211 200.305953L167.470211 309.573579C167.470211 315.249165 168.745223 319.579372 171.441231 322.489633 174.066347 325.399893 177.544796 326.890207 181.875528 326.890207 185.985182 326.890207 189.393789 325.400418 192.089797 322.420316 194.785805 319.50953 196.205752 315.109481 196.205752 309.358277L196.205752 269.272615 222.460587 269.272615C224.019692 269.272615 225.508956 269.272615 226.99927 269.203298L213.521854 247.633132 196.205227 247.633132 196.205227 209.384369C196.205227 209.529305 196.275069 209.667938 196.350162 209.813924 196.420529 209.952033 196.489321 210.098018 196.558638 210.16681 197.696066 212.647516 199.614359 215.986806 202.309842 220.24192L219.833895 247.488197 219.973579 247.702974 233.526613 268.704952 233.602232 268.775319 234.094802 269.55776 234.094802 279.487409 201.389817 279.487409 201.389817 292.265354 234.094802 292.265354 234.094802 300.351278 201.389817 300.351278 201.389817 313.121346 234.164644 313.121346C234.448738 317.452603 235.654433 320.716275 237.712935 322.981678 240.130626 325.607844 243.318679 326.959524 247.225108 326.959524 251.127335 326.959524 254.245022 325.607844 256.732029 322.912361 258.859848 320.646958 260.066068 317.382761 260.418954 313.121346L266.093489 313.121346 266.093489 326.890207 288.024944 326.890207 288.024944 313.121346 298.738084 313.121346 298.738084 326.890207 320.59287 326.890207 320.59287 313.121346 344.29033 313.121346 344.29033 300.351278 320.59287 300.351278 320.59287 292.265354 344.29033 292.265354zM266.093489 300.351278L260.487746 300.351278 260.487746 292.265354 266.093489 292.265354 266.093489 300.351278zM298.738609 300.351278L288.025469 300.351278 288.025469 292.265354 298.738609 292.265354 298.738609 300.351278zM298.738609 279.487409L288.025469 279.487409 288.025469 277.644734C288.025469 274.526523 290.367015 271.969149 293.347118 271.969149 296.32617 271.969149 298.738609 274.526523 298.738609 277.644734L298.738609 279.487409 298.738609 279.487409z"/></g></svg>

<svg xmlns="http://www.w3.org/2000/svg" viewBox="0 0 512 510"><path d="M37.515 217.538l-37.48 37.29 37.5 37.282 37.283-37.277zm218.372 219.395L146.913 327.978l-36.582 36.575 145.556 144.771 145.55-144.77-36.57-36.576zm0-364.199l108.98 108.949 36.57-36.57L255.886.348 110.33 145.113l36.582 36.57zM474.252 292.13l37.473-37.29-37.48-37.283-37.29 37.277zm-129.962.136v-12.778h-23.697v-2.057c0-14.546-12.21-26.394-27.246-26.394-15.044 0-27.253 11.848-27.253 26.394v2.057h-5.606v-9.93l32.575-50.021c2.765-4.117 4.677-7.311 5.814-9.584 1.067-2.342 1.635-4.684 1.635-6.95 0-2.841-1.067-5.322-3.264-7.525-2.274-2.127-5.038-3.264-8.378-3.264-2.127 0-3.9.43-5.39 1.206a12.659 12.659 0 00-4.04 3.34 36.087 36.087 0 00-3.34 4.608c-.069.214-.208.353-.285.567l-.492.783c-.853 1.345-1.773 2.98-2.91 4.754v.07l-24.62 39.524-5.044-8.163-.423-.706-17.24-28.03-1.635-2.626c-.706-1.067-1.344-2.127-1.913-3.05 2.696.14 5.107.424 7.304.854 5.607.99 9.653 2.765 12.065 5.246 3.693 3.908 5.536 9.014 5.536 15.258 0 4.615-.92 8.439-2.765 11.496l.07.069.353.498.782 1.275 23.913-38.74a34.723 34.723 0 00-6.174-7.165c-4.185-3.764-9.229-6.389-15.043-8.018-5.82-1.704-14.191-2.557-25.118-2.557h-36.83c-6.312 0-10.927 1.421-13.837 4.116-2.904 2.695-4.324 7.165-4.324 13.484v109.268c0 5.675 1.275 10.005 3.971 12.916 2.625 2.91 6.104 4.4 10.435 4.4 4.11 0 7.518-1.49 10.214-4.47 2.696-2.91 4.116-7.31 4.116-13.062v-40.085h26.255c1.559 0 3.048 0 4.538-.07l-13.477-21.57h-17.317v-38.249c0 .145.07.284.145.43.07.138.14.284.209.353 1.137 2.48 3.055 5.82 5.75 10.075l17.525 27.246.14.215 13.553 21.002.075.07.493.783v9.93H201.39v12.777h32.705v8.086H201.39v12.77h32.775c.284 4.332 1.49 7.595 3.548 9.86 2.418 2.627 5.606 3.979 9.512 3.979 3.902 0 7.02-1.352 9.507-4.048 2.128-2.265 3.334-5.53 3.687-9.79h5.674v13.768h21.932v-13.769h10.713v13.77h21.855v-13.77h23.697v-12.77h-23.697v-8.086h23.697zm-78.197 8.086h-5.605v-8.086h5.605v8.086zm32.646 0h-10.714v-8.086h10.714v8.086zm0-20.864h-10.714v-1.842c0-3.118 2.342-5.676 5.322-5.676s5.392 2.558 5.392 5.676v1.842z"/></svg>
